src/assets/trust.svg

<?xml version="1.0" encoding="utf-8"?>
<svg width="511.99655px" height="462.23996px" viewBox="0 0 511.99655 462.23996" version="1.1" xmlns:xlink="http://www.w3.org/1999/xlink" xmlns="http://www.w3.org/2000/svg">
  <path d="M211.016 0C132.596 49.71 61.7465 73.23 0.946488 67.67C-9.67351 282.45 69.6465 409.3 210.206 462.24C225.356 456.71 239.806 450.28 253.516 442.92C248.809 441.106 244.531 438.33 240.956 434.77L240.896 434.7L240.836 434.77C237.836 431.77 235.356 428.24 233.566 424.34C226.006 427.84 218.226 431.06 210.216 433.98C86.8465 387.52 17.2265 276.18 26.5365 87.65C79.9065 92.53 142.096 71.89 210.936 28.25C270.496 74.52 331.966 88.07 394.616 84.79C395.136 104.75 394.886 123.76 393.916 141.88C402.186 143.09 410.266 145.88 418.066 150.45C420.316 123.63 421.096 94.98 420.286 64.41C348.917 68.15 278.876 52.71 211.016 0L211.016 0ZM266.167 413.12C265.19 413.123 264.252 412.736 263.561 412.045C262.871 411.354 262.484 410.417 262.487 409.44C262.487 408.39 262.637 407.36 262.877 406.33C268.787 359.55 289.467 358.71 315.477 351.94C323.227 349.92 337.417 348.84 345.677 341.61C350.227 337.61 352.977 329.48 351.877 323.61C345.607 317.78 340.767 311.48 339.667 299.47L338.917 299.48C337.167 299.45 335.477 299.07 333.917 298.17C330.447 296.18 328.547 292.43 327.627 288.1C326.467 282.65 326.857 276.17 327.427 272.09L327.627 271.28C328.837 267.91 330.337 266.08 332.247 265.29L332.297 265.26C331.427 249.03 334.167 223.32 317.507 218.26C350.417 177.58 388.377 155.44 416.877 191.64C448.627 193.31 462.787 240.11 443.067 265.29L442.237 265.29C444.127 266.08 445.627 267.91 446.837 271.28L447.057 272.09C447.627 276.17 448.007 282.65 446.837 288.1C445.917 292.43 444.027 296.18 440.557 298.17C438.997 299.07 437.307 299.45 435.567 299.48L434.807 299.47C433.717 311.48 428.877 317.78 422.607 323.61C421.487 329.48 424.257 337.61 428.797 341.61C437.067 348.84 451.247 349.91 459.017 351.94C485.017 358.71 505.697 359.55 511.607 406.33C511.847 407.36 511.997 408.39 511.997 409.44C511.997 411.48 510.347 413.12 508.317 413.12L266.167 413.12L266.167 413.12ZM208.736 74.84C155.697 108.45 107.786 124.35 66.6765 120.6C59.4965 265.83 113.126 351.6 208.176 387.4C208.776 387.18 209.366 386.95 209.966 386.73L209.966 75.78L208.736 74.84L208.736 74.84Z" id="Forme" fill="#FFFFFF" fill-rule="evenodd" stroke="none" />
</svg>

<svg xmlns="http://www.w3.org/2000/svg" shape-rendering="geometricPrecision" text-rendering="geometricPrecision" image-rendering="optimizeQuality" fill-rule="evenodd" clip-rule="evenodd" viewBox="0 0 512 462.24"><path d="M211.02 0C132.6 49.71 61.75 73.23.95 67.67-9.67 282.45 69.65 409.3 210.21 462.24c15.15-5.53 29.6-11.96 43.31-19.32a36.277 36.277 0 0 1-12.56-8.15l-.06-.07-.06.07c-3-3-5.48-6.53-7.27-10.43-7.56 3.5-15.34 6.72-23.35 9.64C86.85 387.52 17.23 276.18 26.54 87.65c53.37 4.88 115.56-15.76 184.4-59.4 59.56 46.27 121.03 59.82 183.68 56.54.52 19.96.27 38.97-.7 57.09 8.27 1.21 16.35 4 24.15 8.57 2.25-26.82 3.03-55.47 2.22-86.04C348.92 68.15 278.88 52.71 211.02 0zm55.15 413.12a3.67 3.67 0 0 1-3.68-3.68c0-1.05.15-2.08.39-3.11 5.91-46.78 26.59-47.62 52.6-54.39 7.75-2.02 21.94-3.1 30.2-10.33 4.55-4 7.3-12.13 6.2-18-6.27-5.83-11.11-12.13-12.21-24.14l-.75.01c-1.75-.03-3.44-.41-5-1.31-3.47-1.99-5.37-5.74-6.29-10.07-1.16-5.45-.77-11.93-.2-16.01l.2-.81c1.21-3.37 2.71-5.2 4.62-5.99l.05-.03c-.87-16.23 1.87-41.94-14.79-47 32.91-40.68 70.87-62.82 99.37-26.62 31.75 1.67 45.91 48.47 26.19 73.65h-.83c1.89.79 3.39 2.62 4.6 5.99l.22.81c.57 4.08.95 10.56-.22 16.01-.92 4.33-2.81 8.08-6.28 10.07-1.56.9-3.25 1.28-4.99 1.31l-.76-.01c-1.09 12.01-5.93 18.31-12.2 24.14-1.12 5.87 1.65 14 6.19 18 8.27 7.23 22.45 8.3 30.22 10.33 26 6.77 46.68 7.61 52.59 54.39.24 1.03.39 2.06.39 3.11 0 2.04-1.65 3.68-3.68 3.68H266.17zM208.74 74.84c-53.04 33.61-100.95 49.51-142.06 45.76-7.18 145.23 46.45 231 141.5 266.8.6-.22 1.19-.45 1.79-.67V75.78l-1.23-.94z"/></svg>
